Sources/FrostedUI/Resources/Icons.xcassets/twitch20.imageset/twitch-20.svg

<svg width="20" height="20" viewBox="0 0 20 20" fill="none" xmlns="http://www.w3.org/2000/svg" data-fui-icon="true">
  <path
    d="M3.09113 2L2 4.78267V15.912H5.99894V18H8.18213L10.3632 15.912H13.6357L18 11.7398V2H3.09113ZM4.54481 3.39044H16.5456V11.0428L13.9994 13.4779H10L7.81956 15.5631V13.478H4.54481V3.39044ZM8.54531 10.348H10V6.1746H8.54531V10.348ZM12.5451 10.348H13.9995V6.1746H12.5451V10.348Z"
    fill="currentColor"
  />
</svg>

<svg xmlns="http://www.w3.org/2000/svg" width="20" height="20" fill="none" data-fui-icon="true" viewBox="0 0 20 20"><path fill="currentColor" d="M3.091 2 2 4.783v11.129h3.999V18h2.183l2.181-2.088h3.273L18 11.74V2zm1.454 1.39h12v7.653L14 13.478H10l-2.18 2.085v-2.085H4.545zm4 6.958H10V6.175H8.545zm4 0H14V6.175h-1.454z"/></svg>
